X: 1
T:When Irish Eyes are Smiling
M:6/8
L:1/8
Q:80
C:Traditional
S:Slow Air
K:HP
|: a|
f2{e}f{gef}e2d|
{g}fa2-afd|
{g}G2{d}B{Gdc}d2{e}B|  !
{G}A3-ABc|
{Gdc}d2c{g}d2c|
{gBd}B{G}A2{gf}g2f|  !
{g}B2e{A}e2f|
{gef}e3{A}e2a|
f2{e}f{gef}e2d|  !
{g}fa2-afd|
{g}G2{d}B{Gdc}d2{e}B|
{G}A3-ABc|  !
{Gdc}d2c{gef}e2d|
{gfg}f3{g}A2{GAG}A|
{g}B3/2c/2d{gef}e2d|  !
{gdc}d3-d2:|
